!!!COM: Davlesov, Nasyr
!!!CDT: b.1929
!!!OTL: National Anthem, Kyrgyzstan
!!!ENC: Davis, Matthew J.
!!Vocal Line Only
**kern
*clefG2
*k[f#c#g#]
*A:
*M4/4
=1-
1r
==2
*M3/4
!Coda Symbol
8.e
16e
4a
4a
=3
8f#
8g#
4a
8g#
8a
=4
8.b
16g#
2a
=5
8.f#
16f#
4b
4cc#
=6
8.dd
16cc#
8b
16a
8.b
16a
=7
2b
8.cc#
16dd
=8
4ee
4ee
8.dd
16cc#
=9
8b
8dd
8.cc#
16a
4f#
=10
8.b
16a
4g#
8g#
8f#
=11
8e
8f#
8g#
8b
8.cc#
16b
=12
4a
6e
6f#
6gn
6a
6b
6cc#
==13
*M4/44.dd
8cc#
4b
4a
=14
4.cc#
8a
2e
=15
4b
4cc#
4a
4b
=16
4.cc#
8cc#
2cc#
=17
4.b
8dd
4cc#
3a
=18
4dd
4ee
2ff#
=19
4ee
8.dd
16cc#
4.b
8b
=20
*M2/4
!First and Second Ending
4b
8.a
16cc#
=21
*M4/4
[2b
8b]
8r
4r
==:|!
!Third Ending
2b
4a
4cc#
=23
1a
=24
8aa
8r
4r
2r
==|!
*-
